packages/rn-bitcoin-icons/svg/filled/wallet.svg

<svg width="24" height="24" viewBox="0 0 24 24" fill="none" xmlns="http://www.w3.org/2000/svg">
<path fill-rule="evenodd" clip-rule="evenodd" d="M11.9999 8C11.9999 6.89543 12.8954 6 13.9999 6H17.9999C19.1045 6 19.9999 6.89543 19.9999 8V16C19.9999 17.1046 19.1045 18 17.9999 18H13.9999C12.8954 18 11.9999 17.1046 11.9999 16V8ZM13.9999 7C13.4477 7 12.9999 7.44772 12.9999 8V16C12.9999 16.5523 13.4477 17 13.9999 17H17.9999C18.5522 17 18.9999 16.5523 18.9999 16V8C18.9999 7.44772 18.5522 7 17.9999 7H13.9999Z" fill="black"/>
<path fill-rule="evenodd" clip-rule="evenodd" d="M5.49995 6C4.67152 6 3.99995 6.67157 3.99995 7.5V16.5C3.99995 17.3284 4.67152 18 5.49995 18H15.4999C16.3284 18 16.9999 17.3284 16.9999 16.5V7.5C16.9999 6.67157 16.3284 6 15.4999 6H5.49995ZM7.49995 13.5C8.32837 13.5 8.99995 12.8284 8.99995 12C8.99995 11.1716 8.32837 10.5 7.49995 10.5C6.67152 10.5 5.99995 11.1716 5.99995 12C5.99995 12.8284 6.67152 13.5 7.49995 13.5Z" fill="black"/>
</svg>

<svg xmlns="http://www.w3.org/2000/svg" viewBox="0 0 24 24" fill="currentColor">
  <path fill-rule="evenodd" d="M12 8a2 2 0 012-2h4a2 2 0 012 2v8a2 2 0 01-2 2h-4a2 2 0 01-2-2V8zm2-1a1 1 0 00-1 1v8a1 1 0 001 1h4a1 1 0 001-1V8a1 1 0 00-1-1h-4z" clip-rule="evenodd"/>
  <path fill-rule="evenodd" d="M5.5 6A1.5 1.5 0 004 7.5v9A1.5 1.5 0 005.5 18h10a1.5 1.5 0 001.5-1.5v-9A1.5 1.5 0 0015.5 6h-10zm2 7.5a1.5 1.5 0 100-3 1.5 1.5 0 000 3z" clip-rule="evenodd"/>
</svg>
